X:35
T: VERSTOHLEN GEHT DER MOND AUF
N: Z0036
O: Europa, Mitteleuropa, Deutschland,  Niederrhein
R: Sagen - Lied, Romanze; +++ 265 nach Gehr gendert. +++
M: 2/4
L: 1/16
K: C
G,2 | C2D2_E2C2 | B,2C2D2z2 |
C4G4 | F2G2C2
C2 | D2D2F2F2 | F2G_ED2z2 |
C2B,CD2z2 | C2B,CD2z2 |
C4G2G2 | _E2DEC2

@@@ Tune index: 9793
